X:26
T:53 Andrew Mack
C:Aylmore MS
M:6/8
L:1/8
Z:Sussex Tune Book
K:D
V:1
A | de/2f/2d B2d | AFA A2B | ABA d2e | f2a gfe |
de/2f/2d B2d | ABA A2d | B2g fge | d3d2 :|
|: A | def a2f | b2g afd | def a2f | g2e bge |
def a2f | b2g afd | fdB GBd | f3gfe | dBB B2d | AFA A2B |
ABA d2e | f3gfe | dBB B2d | AFA A2B | B2g fge | d3d2 :|
V:2
D |\
FAF G2A | F2F F2G | F2F F2A | d2f edc | F2F G2A | F2F F2F | G2e d2A | F3F2 :|
|: D | FAd f2d | g2e fdB | FAd f2d | e2c gec |
FAd f2d | g2e fdB | F2G G2A | d3edA | G2G G2A | F2F F2G |
F2F F2G | d3edA | G2G G2A | F2F F2F | G2e d2A | F3F2 :|
V:3
K:D Bass
z | D,2D, G,2G, | A,3A,3 | D,2D, D,2E, | F,D,A, G,F,E, |
D,2D, G,2G, | A,3A,3 | D,2G, A,2A, | D,A,,F,, D,,2 :|
|: D, | D,6 | D,6 | D,6 | E,6 | D,6 | D,6 | D,2D, D,2D, |
F,D,A, G,F,E, | D,2D, G,2G, | A,2A, A,3 | A,2A, D,2E, |
F,D,A, G,F,E, | D,2D, G,2G, | A,3A,3 | D,2G, A,2A,, | D,A,,F,, D,,2 :|

